static/images/pieces/makruk/ada/wF.svg

<svg height="360" viewBox="0 0 95.249998 95.250003" width="360" xmlns="http://www.w3.org/2000/svg" xmlns:xlink="http://www.w3.org/1999/xlink"><radialGradient id="a" cx="47.625" cy="249.37497" gradientTransform="matrix(-.00020025 -3.5135125 3.5135141 -.00000048 -828.54793 416.70611)" gradientUnits="userSpaceOnUse" r="19.579167"><stop offset="0" stop-color="#fff6d5"/><stop offset="1" stop-color="#540"/></radialGradient><radialGradient id="b" cx="47.625" cy="249.37497" gradientTransform="matrix(.00000164 -1.5384617 1.5384618 -.00000004 -336.02894 322.64422)" gradientUnits="userSpaceOnUse" r="27.516665"><stop offset="0" stop-color="#fff"/><stop offset=".53125006" stop-color="#fff6d5"/><stop offset="1" stop-color="#fff"/></radialGradient><filter id="c" color-interpolation-filters="sRGB"><feFlood flood-opacity=".498039" result="flood"/><feComposite in="flood" in2="SourceGraphic" operator="in" result="composite1"/><feGaussianBlur in="composite1" result="blur" stdDeviation="1"/><feOffset dx="1.5" dy="1.5" result="offset"/><feComposite in="SourceGraphic" in2="offset" operator="over" result="composite2"/></filter><filter id="d" color-interpolation-filters="sRGB"><feFlood flood-opacity=".498039" result="flood"/><feComposite in="flood" in2="SourceGraphic" operator="out" result="composite1"/><feGaussianBlur in="composite1" result="blur" stdDeviation="3"/><feOffset dx="1.5" dy="1.5" result="offset"/><feComposite in="offset" in2="SourceGraphic" operator="atop" result="composite2"/></filter><g stroke="#000" stroke-width="2.116667" transform="translate(0 -201.74997)"><path d="m21.166668 249.37497a26.458332 26.458332 0 0 1 26.456602-26.45833 26.458332 26.458332 0 0 1 26.460062 26.45487 26.458332 26.458332 0 0 1 -26.453138 26.46179 26.458332 26.458332 0 0 1 -26.463525-26.4514" fill="url(#b)" filter="url(#c)"/><path d="m29.104166 249.37497a18.520834 18.520834 0 0 1 18.519623-18.52083 18.520834 18.520834 0 0 1 18.522045 18.51841 18.520834 18.520834 0 0 1 -18.517198 18.52325 18.520834 18.520834 0 0 1 -18.524469-18.51598" fill="url(#a)" filter="url(#d)"/></g></svg>

<?xml version="1.0" encoding="UTF-8" standalone="no"?>
<!-- Created with Inkscape (http://www.inkscape.org/) -->

<svg
   xmlns:dc="http://purl.org/dc/elements/1.1/"
   xmlns:cc="http://creativecommons.org/ns#"
   xmlns:rdf="http://www.w3.org/1999/02/22-rdf-syntax-ns#"
   xmlns:svg="http://www.w3.org/2000/svg"
   xmlns="http://www.w3.org/2000/svg"
   xmlns:xlink="http://www.w3.org/1999/xlink"
   xmlns:sodipodi="http://sodipodi.sourceforge.net/DTD/sodipodi-0.dtd"
   xmlns:inkscape="http://www.inkscape.org/namespaces/inkscape"
   width="360"
   height="360"
   viewBox="0 0 95.249998 95.250003"
   version="1.1"
   id="svg8"
   sodipodi:docname="biangai_w.svg"
   inkscape:version="0.92.5 (2060ec1f9f, 2020-04-08)">
  <defs
     id="defs2">
    <linearGradient
       id="linearGradient1484"
       inkscape:collect="always">
      <stop
         id="stop1480"
         offset="0"
         style="stop-color:#ffffff;stop-opacity:1" />
      <stop
         style="stop-color:#fff6d5;stop-opacity:1"
         offset="0.53125006"
         id="stop1486" />
      <stop
         id="stop1482"
         offset="1"
         style="stop-color:#ffffff;stop-opacity:1" />
    </linearGradient>
    <linearGradient
       inkscape:collect="always"
       id="linearGradient1474">
      <stop
         style="stop-color:#fff6d5;stop-opacity:1"
         offset="0"
         id="stop1470" />
      <stop
         style="stop-color:#554400;stop-opacity:1"
         offset="1"
         id="stop1472" />
    </linearGradient>
    <radialGradient
       inkscape:collect="always"
       xlink:href="#linearGradient1474"
       id="radialGradient1476"
       cx="47.625"
       cy="249.37497"
       fx="47.625"
       fy="249.37497"
       r="19.579167"
       gradientUnits="userSpaceOnUse"
       gradientTransform="matrix(-2.0025334e-4,-3.5135125,3.5135141,-4.751198e-7,-828.54793,416.70611)" />
    <radialGradient
       inkscape:collect="always"
       xlink:href="#linearGradient1484"
       id="radialGradient1478"
       cx="47.625"
       cy="249.37497"
       fx="47.625"
       fy="249.37497"
       r="27.516665"
       gradientUnits="userSpaceOnUse"
       gradientTransform="matrix(1.6398958e-6,-1.5384617,1.5384618,-3.634101e-8,-336.02894,322.64422)" />
    <filter
       style="color-interpolation-filters:sRGB;"
       inkscape:label="Drop Shadow"
       id="filter14116">
      <feFlood
         flood-opacity="0.498039"
         flood-color="rgb(0,0,0)"
         result="flood"
         id="feFlood14106" />
      <feComposite
         in="flood"
         in2="SourceGraphic"
         operator="in"
         result="composite1"
         id="feComposite14108" />
      <feGaussianBlur
         in="composite1"
         stdDeviation="1"
         result="blur"
         id="feGaussianBlur14110" />
      <feOffset
         dx="1.5"
         dy="1.5"
         result="offset"
         id="feOffset14112" />
      <feComposite
         in="SourceGraphic"
         in2="offset"
         operator="over"
         result="composite2"
         id="feComposite14114" />
    </filter>
    <filter
       style="color-interpolation-filters:sRGB;"
       inkscape:label="Drop Shadow"
       id="filter14404">
      <feFlood
         flood-opacity="0.498039"
         flood-color="rgb(0,0,0)"
         result="flood"
         id="feFlood14394" />
      <feComposite
         in="flood"
         in2="SourceGraphic"
         operator="out"
         result="composite1"
         id="feComposite14396" />
      <feGaussianBlur
         in="composite1"
         stdDeviation="3"
         result="blur"
         id="feGaussianBlur14398" />
      <feOffset
         dx="1.5"
         dy="1.5"
         result="offset"
         id="feOffset14400" />
      <feComposite
         in="offset"
         in2="SourceGraphic"
         operator="atop"
         result="composite2"
         id="feComposite14402" />
    </filter>
  </defs>
  <sodipodi:namedview
     id="base"
     pagecolor="#ffffff"
     bordercolor="#666666"
     borderopacity="1.0"
     inkscape:pageopacity="0.0"
     inkscape:pageshadow="2"
     inkscape:zoom="1.979899"
     inkscape:cx="52.187243"
     inkscape:cy="206.10625"
     inkscape:document-units="mm"
     inkscape:current-layer="layer1"
     showgrid="true"
     units="px"
     inkscape:window-width="1849"
     inkscape:window-height="1004"
     inkscape:window-x="4"
     inkscape:window-y="48"
     inkscape:window-maximized="0">
    <inkscape:grid
       type="xygrid"
       id="grid3721" />
  </sodipodi:namedview>
  <metadata
     id="metadata5">
    <rdf:RDF>
      <cc:Work
         rdf:about="">
        <dc:format>image/svg+xml</dc:format>
        <dc:type
           rdf:resource="http://purl.org/dc/dcmitype/StillImage" />
        <dc:title />
      </cc:Work>
    </rdf:RDF>
  </metadata>
  <g
     inkscape:label="Layer 1"
     inkscape:groupmode="layer"
     id="layer1"
     transform="translate(0,-201.74997)">
    <path
       style="fill:url(#radialGradient1478);stroke:#000000;stroke-width:2.11666667;stroke-miterlimit:4;stroke-dasharray:none;fill-opacity:1;filter:url(#filter14116)"
       id="path4194"
       sodipodi:type="arc"
       sodipodi:cx="47.625"
       sodipodi:cy="249.37497"
       sodipodi:rx="26.458332"
       sodipodi:ry="26.458332"
       sodipodi:start="3.1415927"
       sodipodi:end="3.1413309"
       sodipodi:open="true"
       d="M 21.166668,249.37497 A 26.458332,26.458332 0 0 1 47.62327,222.91664 26.458332,26.458332 0 0 1 74.083332,249.37151 26.458332,26.458332 0 0 1 47.630194,275.8333 26.458332,26.458332 0 0 1 21.166669,249.3819" />
    <path
       style="fill:url(#radialGradient1476);stroke:#000000;stroke-width:2.11666667;stroke-miterlimit:4;stroke-dasharray:none;fill-opacity:1;filter:url(#filter14404)"
       id="path5378"
       sodipodi:type="arc"
       sodipodi:cx="47.625"
       sodipodi:cy="249.37497"
       sodipodi:rx="18.520834"
       sodipodi:ry="18.520834"
       sodipodi:start="3.1415927"
       sodipodi:end="3.1413309"
       sodipodi:open="true"
       d="M 29.104166,249.37497 A 18.520834,18.520834 0 0 1 47.623789,230.85414 18.520834,18.520834 0 0 1 66.145834,249.37255 18.520834,18.520834 0 0 1 47.628636,267.8958 18.520834,18.520834 0 0 1 29.104167,249.37982" />
  </g>
</svg>
